X:238
T:The Pussy 
R:jig
C:Bruce Osborne
Z:abc by bosborne@kos.net
M:6/8
L:1/8
K:Emaj
G/F/|EFE EGB|e2 f gfe|cec BGE|EFG F2 G|\
EFE EGB|e2 f gfe|cec BGF|GEE E2:|
|:G/A/|BEE cEE|BEE EDE|FB,B, GB,B,|GFE F2 G/A/|\
BEE cEE|BEE EDE|cec BGF|GEE E2:|
